!!!OTL: Zu Jhm.
!!!OTL-incipit: ALLAH GIBT LICHT IN NAECHTEN
!!!COM: Zumsteeg
!!!ARE: Europa, Mitteleuropa, Deutschland
!!!SCT: F1058
!!!TXL: @@DE
!!!YEM: Copyright 1995, estate of Helmut Schaffrath.
**kern	**text	**text	**text
*ICvox	*	*	*
*clefG2	*	*	*
*M4/4	*	*	*
*met(c)	*	*	*
*k[b-]	*	*	*
*F:	*	*	*
=1	=1	=1	=1
!LO:TX:a:t=Mäßig langſam.	!	!	!
!LO:TX:a:t=P:only the highest voice encoded:problem	!	!	!
{4a	1._Al-	2._Blumen	3._Fröh-
8a	-lah	.	-lich
8a	gibt	und	ʒu
4a	Licht	Blüthen	Al-
4a	in	.	-lah's
=2	=2	=2	=2
2b-/	Nächten,	wel-	Wohnung
4a	.	-ken,	.
4r}	.	.	.
=3	=3	=3	=3
{4g	Al-	Jah-	werd'
8f#	-lah	-re	ich
8f#	gibt	ver-	hin-
(>8g/L	Troſt	-ſchwinden	-ü-
8ddJ	.	.	.
16cc/L	in	.	-ber
16b-J)	.	.	.
16aL	.	im	.
16gJ	.	.	.
=4	=4	=4	=4
(>2f	Noth!	Flug;	gehn,
4e)	.	.	.
8r}	.	.	.
{8g	und	doch	dort
=5	=5	=5	=5
(>8a	bleich	ach!	wird
4g)	.	.	.
8g	ge-	mein	die
(>8a	-härm-	Herʒ	Nacht
4g)	.	.	.
8g	-te	wird	ver-
=6	=6	=6	=6
2bn/	1._Wangen	2._blei-	-3._ſchwinden,
4cc/	.	-ben,	.
8r}	.	.	.
{8b-/	färbt	das	dort
=7	=7	=7	=7
4b-/	Al-	hier	wird
4a	-lah	voll	mein
4.g	wie-	Schwermuth	Au-
8cc/	-der	.	-ge
=8	=8	=8	=8
4f	roth.	ſchuld.	ſehn.
4r	.	.	.
2r}	.	.	.
==	==	==	==
!!!AGN: Trost - Lied
!!!ONB: ESAC (Essen Associative Code) Database: FINK
!!!AMT: simple quadruple
!!!AIN: vox
!!!EED: Helmut Schaffrath
!!!EEV: 1.0
!!text: Mahlmann
!!!RDF**kern: > = above
!!!GTL: Trauer- Begraebniss- und Trostlieder
!!!URL-scan: https://www.digitale-sammlungen.de/en/view/bsb11144622?page=669
!!!ENC: Anna Maria Matuszewska
!!!EEV: 2024/08/09
*-	*-	*-	*-
